X:35
T:Four Squares on the Griddle
B:Terry "Cuz" Teahan "Sliabh Luachra on Parade" 1980
Z:Patrick Cavanagh
M:12/8
L:1/8
R:Slide
K:D
A | F2A ABA G2B B2A | F2A dAF E3 EDE | 
F2A ABA G2B BAB | e2d cBA d3 d2 :| 
e | f2A f2A g2B g2f | e2d Bcd e3 ede | 
f2A f2A g2B g2f | e2d cBA d3 d2 :|| 

